X: 204
T: Da duihua
%%abc-version 2.0
%%abcx-abcm2ps-target-version 5.9.1 (29 Sep 2008)
%%abc-creator hum2abc beta
%%abcx-conversion-date 2013/10/02 07:52:29
%%abc-edited-by Helmut Schaffrath
%%humdrum-veritas 2305077563
%%humdrum-veritas-data 3204634640
%%continueall 1
%%barnumbers 0
L: 1/8
M: 2/4
K: G
d d e g [I:setbarnb 1]| 
d2B2 | 
d e d B | 
A GA2 | 
d d e g | 
d2B2 | 
d e d B | 
A GA2 | 
d BA2 | 
G BA2 | 
d B A B | 
G BA2 | 
g2d2 | 
F> ED2 | 
G> B F E | 
D3z | 
d> d B d | 
g g/ e/d2 | 
B> d B d | 
g> ed2 | 
d d B A | 
G2E2 | 
d> B A G | 
D4 |]  



